public/img/14.svg

<svg width="326" height="275" viewBox="0 0 326 275" fill="none" xmlns="http://www.w3.org/2000/svg">
<g opacity="0.7">
<g clip-path="url(#clip0)">
<mask id="mask0" mask-type="alpha" maskUnits="userSpaceOnUse" x="-10" y="-71" width="535" height="535">
<path fill-rule="evenodd" clip-rule="evenodd" d="M82.9223 171.282C80.0971 179.59 77.7811 188.048 75.9444 196.488L184.826 88.7548C182.804 88.7233 180.781 88.6735 178.761 88.6238C175.463 88.5427 172.173 88.4617 168.906 88.4609L82.9223 171.282ZM91.9513 149.034L151.63 89.6954C143.149 91.173 135.062 94.2953 127.698 100.656C112.586 113.707 100.798 130.546 91.9513 149.034ZM196.574 88.5955L72.7293 214.47C71.9229 220.058 71.2042 225.733 70.615 231.44L218.981 83.9344C211.78 86.9673 204.24 88.1774 196.574 88.5955ZM255.726 47.4022L324.268 -20.7423C321.202 -20.6628 318.073 -20.2931 314.883 -19.6041C292.64 -14.7991 279.275 7.87222 265.524 31.1987C262.318 36.637 259.091 42.1108 255.726 47.4022ZM336.374 -19.5422L69.5611 243.775C69.126 250.306 68.8983 256.832 68.9396 263.275L342.77 -17.665C340.675 -18.4232 338.543 -19.0531 336.374 -19.5422ZM350.511 -14.2109L69.3426 275.162C69.5352 278.206 69.7993 281.219 70.1418 284.194L361.794 -6.78C358.182 -9.62704 354.419 -12.1346 350.511 -14.2109ZM365.517 -3.68215L71.7914 295.062C72.6326 299.46 73.6792 303.741 74.9562 307.873L376.839 7.81439C373.266 3.67651 369.49 -0.200213 365.517 -3.68215ZM385.856 19.3455L77.8585 316.013C79.7954 320.758 82.0953 325.255 84.8028 329.446L390.815 26.6615C389.223 24.1956 387.57 21.7502 385.856 19.3455ZM393.934 31.6435L91.8814 338.645C92.0263 338.804 92.172 338.961 92.3185 339.118C94.4132 341.364 96.6308 343.429 98.959 345.322L401.285 44.7482C400.914 43.9825 400.527 43.2231 400.121 42.4705C398.194 38.8895 396.13 35.2595 393.934 31.6435ZM404.372 52.3552L103.69 348.837C108.028 351.776 112.682 354.207 117.585 356.183L406.342 59.4214C405.796 57.0226 405.145 54.6655 404.372 52.3552ZM407.913 68.4828L126.112 359.104C128.772 359.866 131.489 360.516 134.252 361.061L408.875 87.1236C408.91 80.7573 408.663 74.518 407.913 68.4828ZM408.721 94.541L144.872 362.631C149.612 363.114 154.449 363.334 159.34 363.325L407.555 116.522C407.65 114.891 407.747 113.262 407.844 111.634C408.187 105.896 408.529 100.181 408.721 94.541ZM406.799 136.23L171.517 362.856C179.16 362.295 186.85 361.255 194.436 359.857L407.148 149.389C406.858 145.049 406.765 140.655 406.799 136.23ZM408.081 158.033L214.383 354.906C228.989 349.036 241.065 336.267 253.231 323.402C265.706 310.209 278.277 296.916 293.768 290.862L411.639 173.674C410.135 168.437 408.889 163.215 408.081 158.033ZM414.685 183.406L309.626 287.088C314.548 286.555 319.55 286.515 324.588 286.785L417.48 191.481C416.525 188.792 415.586 186.099 414.685 183.406ZM423.494 208.455L345.097 289.14C347.139 289.455 349.177 289.781 351.208 290.107C353.185 290.423 355.155 290.738 357.116 291.042L427.407 220.915C426.256 216.795 424.921 212.638 423.494 208.455ZM429.62 229.997L368.11 292.559C374.569 293.297 380.873 293.665 386.92 293.245L431.231 249.202C431.62 242.96 430.952 236.54 429.62 229.997Z" fill="white"/>
</mask>
<g mask="url(#mask0)">
<path d="M136.24 109.636H119.045V83.7531H167.915V185.113H188.187V210.453H116.511V185.113H136.24V109.636ZM283.137 188.552V212.263H253.272V188.552H197.343V174.253L248.385 85.5631H283.137V161.945H294.178V188.552H283.137ZM257.073 121.401H256.711L233.362 163.212H255.444V142.94L257.073 121.401Z" fill="white"/>
</g>
</g>
</g>
<defs>
<clipPath id="clip0">
<rect x="0.00390625" width="325.24" height="274.079" fill="white"/>
</clipPath>
</defs>
</svg>

<svg width="326" height="275" fill="none" xmlns="http://www.w3.org/2000/svg"><g clip-path="url(#clip0)" opacity=".7"><mask id="a" maskUnits="userSpaceOnUse" x="-10" y="-71" width="535" height="535"><path fill-rule="evenodd" clip-rule="evenodd" d="M82.922 171.282c-2.825 8.308-5.14 16.766-6.978 25.206L184.826 88.755a680.037 680.037 0 01-6.065-.131c-3.298-.081-6.588-.162-9.855-.163l-85.984 82.821zm9.03-22.248l59.678-59.339c-8.481 1.478-16.568 4.6-23.932 10.961-15.112 13.051-26.9 29.89-35.747 48.378zm104.622-60.438L72.729 214.47a423.426 423.426 0 00-2.114 16.97L218.981 83.934c-7.201 3.033-14.741 4.243-22.407 4.662zm59.152-41.194l68.542-68.144a50.58 50.58 0 00-9.385 1.138C292.64-14.8 279.275 7.872 265.524 31.199c-3.206 5.438-6.433 10.912-9.798 16.203zm80.648-66.944L69.561 243.775c-.435 6.531-.663 13.057-.621 19.5l273.83-280.94a53.129 53.129 0 00-6.396-1.877zm14.137 5.331L69.343 275.162c.192 3.044.456 6.057.799 9.032L361.794-6.78c-3.612-2.847-7.375-5.355-11.283-7.43zm15.006 10.529L71.791 295.062c.842 4.398 1.888 8.679 3.165 12.811L376.84 7.814c-3.574-4.137-7.35-8.014-11.323-11.496zm20.339 23.027L77.858 316.014c1.937 4.745 4.237 9.242 6.945 13.433L390.815 26.661a192.44 192.44 0 00-4.959-7.316zm8.078 12.299l-302.053 307a66.037 66.037 0 007.078 6.677L401.285 44.748a58.749 58.749 0 00-1.164-2.277 239.779 239.779 0 00-6.187-10.827zm10.438 20.711L103.69 348.837c4.338 2.939 8.992 5.37 13.895 7.346L406.342 59.421a74.035 74.035 0 00-1.97-7.066zm3.541 16.128L126.112 359.104a99.432 99.432 0 008.14 1.957L408.875 87.124c.035-6.367-.212-12.606-.962-18.641zm.808 26.058l-263.849 268.09c4.74.483 9.577.703 14.468.694l248.215-246.803c.095-1.631.192-3.26.289-4.888.343-5.738.685-11.453.877-17.093zm-1.922 41.689L171.517 362.856c7.643-.561 15.333-1.601 22.919-2.999l212.712-210.468c-.29-4.34-.383-8.734-.349-13.159zm1.282 21.803L214.383 354.906c14.606-5.87 26.682-18.639 38.848-31.504 12.475-13.193 25.046-26.486 40.537-32.54l117.871-117.188c-1.504-5.237-2.75-10.459-3.558-15.641zm6.604 25.373L309.626 287.088c4.922-.533 9.924-.573 14.962-.303l92.892-95.304a465.048 465.048 0 01-2.795-8.075zm8.809 25.049l-78.397 80.685c2.042.315 4.08.641 6.111.967 1.977.316 3.947.631 5.908.935l70.291-70.127c-1.151-4.12-2.486-8.277-3.913-12.46zm6.126 21.542l-61.51 62.562c6.459.738 12.763 1.106 18.81.686l44.311-44.043c.389-6.242-.279-12.662-1.611-19.205z" fill="#fff"/></mask><g mask="url(#a)"><path d="M136.24 109.636h-17.195V83.753h48.87v101.36h20.272v25.34h-71.676v-25.34h19.729v-75.477zm146.897 78.916v23.711h-29.865v-23.711h-55.929v-14.299l51.042-88.69h34.752v76.382h11.041v26.607h-11.041zm-26.064-67.151h-.362l-23.349 41.811h22.082V142.94l1.629-21.539z" fill="#fff"/></g></g><defs><clipPath id="clip0"><path fill="#fff" d="M.004 0h325.24v274.079H.004z"/></clipPath></defs></svg>
